css/img/copyright.svg

<svg width="64" height="12" viewBox="0 0 64 12" fill="none" xmlns="http://www.w3.org/2000/svg">
<path d="M0.112 6.92291C0.12 8.13091 1.144 8.73091 2.024 8.73091C3.152 8.73091 3.944 7.90691 3.944 6.85891C3.944 5.68291 3.024 5.27491 2.744 5.16291C2.56 5.09091 2.376 5.03491 2.184 4.97091C1.856 4.86691 1.424 4.71491 1.424 4.25091C1.424 3.93091 1.616 3.62691 2.056 3.62691C2.488 3.62691 2.672 3.94691 2.672 4.24291H3.8C3.76 3.42691 3.216 2.56291 2.088 2.56291C0.928 2.56291 0.328 3.46691 0.328 4.24291C0.328 4.70691 0.512 5.40291 1.408 5.77891C1.592 5.85891 1.792 5.91491 1.984 5.97891C2.336 6.09891 2.848 6.32291 2.848 6.92291C2.848 7.34691 2.528 7.66691 2.048 7.66691C1.632 7.66691 1.28 7.38691 1.256 6.92291H0.112ZM5.29225 8.58691H6.38825V3.73091H7.48425V2.66691H4.19625V3.73091H5.29225V8.58691ZM7.04038 8.58691H8.24838L8.85638 7.05891H11.0324L11.6404 8.58691H12.8484L10.3844 2.66691H9.50438L7.04038 8.58691ZM9.27238 5.99491L9.94438 4.26691L10.6164 5.99491H9.27238ZM13.9407 8.58691H15.0367V3.73091H16.1327V2.66691H12.8447V3.73091H13.9407V8.58691ZM16.7321 8.58691H17.8281V2.66691H16.7321V8.58691ZM21.7663 2.56291C19.9983 2.56291 18.6463 3.94691 18.6463 5.65891C18.6463 7.37091 20.0063 8.73091 21.7663 8.73091C23.5263 8.73091 24.8863 7.37091 24.8863 5.65891C24.8863 3.94691 23.5343 2.56291 21.7663 2.56291ZM21.7583 7.66691C20.6143 7.66691 19.7423 6.75491 19.7423 5.63491C19.7423 4.53091 20.6063 3.62691 21.7663 3.62691C22.9262 3.62691 23.7903 4.53091 23.7903 5.63491C23.7903 6.73891 22.9343 7.66691 21.7583 7.66691ZM25.669 8.58691H26.765V4.58691L29.405 8.58691H30.501V2.66691H29.405V6.66691L26.765 2.66691H25.669V8.58691Z" fill="white"/>
<path d="M45.7032 8.58691H49.5272V7.57891H47.1912L48.3192 6.57091C49.1992 5.78691 49.5272 5.18691 49.5272 4.48291C49.5272 3.29891 48.6872 2.56291 47.5832 2.56291C46.1912 2.56291 45.5992 3.65891 45.6392 4.71491H46.7032C46.6632 4.18691 46.9352 3.57091 47.6152 3.57091C48.2072 3.57091 48.4632 4.01891 48.4632 4.46691C48.4632 5.05091 48.0792 5.37091 47.7432 5.68291L45.7032 7.57891V8.58691ZM50.0998 6.60291C50.0998 7.92291 50.8678 8.73091 52.0838 8.73091C53.2998 8.73091 54.0677 7.92291 54.0677 6.60291V4.69091C54.0677 3.37091 53.2998 2.56291 52.0838 2.56291C50.8678 2.56291 50.0998 3.37091 50.0998 4.69091V6.60291ZM53.0038 6.60291C53.0038 7.63491 52.3718 7.72291 52.0838 7.72291C51.7958 7.72291 51.1638 7.63491 51.1638 6.60291V4.69091C51.1638 3.65891 51.7958 3.57091 52.0838 3.57091C52.3718 3.57091 53.0038 3.65891 53.0038 4.69091V6.60291ZM54.6563 8.58691H58.4803V7.57891H56.1443L57.2723 6.57091C58.1523 5.78691 58.4803 5.18691 58.4803 4.48291C58.4803 3.29891 57.6403 2.56291 56.5363 2.56291C55.1443 2.56291 54.5523 3.65891 54.5923 4.71491H55.6563C55.6163 4.18691 55.8883 3.57091 56.5683 3.57091C57.1603 3.57091 57.4163 4.01891 57.4163 4.46691C57.4163 5.05091 57.0323 5.37091 56.6963 5.68291L54.6563 7.57891V8.58691ZM61.2529 8.58691H62.3169V2.66691H61.0929L59.1969 5.10691L60.0369 5.74691L61.2529 4.15491V8.58691Z" fill="white"/>
<path d="M40.9154 4.36291C40.4194 3.22691 39.3954 2.56291 38.1714 2.56291C36.0754 2.56291 35.0754 4.30691 35.0754 5.62691C35.0754 6.98691 36.0834 8.73091 38.1554 8.73091C39.4434 8.73091 40.3954 8.01891 40.8834 6.97891H39.6114C39.2434 7.45891 38.7154 7.66691 38.1874 7.66691C37.0514 7.66691 36.1714 6.73891 36.1714 5.62691C36.1714 4.58691 36.9954 3.62691 38.1794 3.62691C38.8834 3.62691 39.3714 3.98691 39.6674 4.36291H40.9154Z" fill="white"/>
<path d="M42.7074 5.63989C42.7074 8.10725 40.6417 10.1305 38.0646 10.1305C35.4875 10.1305 33.4217 8.10725 33.4217 5.63989C33.4217 3.17253 35.4875 1.14926 38.0646 1.14926C40.6417 1.14926 42.7074 3.17253 42.7074 5.63989Z" stroke="white" stroke-width="0.898126"/>
</svg>

<svg id="Layer_1" data-name="Layer 1" xmlns="http://www.w3.org/2000/svg" viewBox="0 0 64 12"><defs><style>.cls-1{fill:#fff;}.cls-2{fill:none;stroke:#fff;stroke-width:0.9px;}</style></defs><path class="cls-1" d="M.11,6.92A1.84,1.84,0,0,0,2,8.73,1.84,1.84,0,0,0,3.94,6.86a1.77,1.77,0,0,0-1.2-1.7L2.18,5c-.32-.1-.76-.26-.76-.72a.59.59,0,0,1,.64-.62.58.58,0,0,1,.61.61H3.8A1.67,1.67,0,0,0,2.09,2.56,1.7,1.7,0,0,0,.33,4.24,1.61,1.61,0,0,0,1.41,5.78c.18.08.38.13.57.2.36.12.87.34.87.94a.74.74,0,0,1-.8.75.76.76,0,0,1-.79-.75ZM5.29,8.59h1.1V3.73H7.48V2.67H4.2V3.73H5.29ZM7,8.59H8.25l.61-1.53H11l.61,1.53h1.21L10.38,2.67H9.5ZM9.27,6l.67-1.72L10.62,6Zm4.67,2.6H15V3.73h1.09V2.67H12.84V3.73h1.1Zm2.79,0h1.1V2.67h-1.1Zm5-6a3.09,3.09,0,1,0,3.12,3.1A3.08,3.08,0,0,0,21.77,2.56Zm0,5.11a2,2,0,1,1,0-4,2,2,0,0,1,2,2A2,2,0,0,1,21.76,7.67Zm3.91.92h1.09v-4l2.65,4H30.5V2.67H29.41v4l-2.65-4H25.67Z"/><path class="cls-1" d="M45.7,8.59h3.83v-1H47.19l1.13-1a2.75,2.75,0,0,0,1.21-2.09,1.84,1.84,0,0,0-2-1.92,1.91,1.91,0,0,0-1.94,2.15H46.7a1,1,0,0,1,.92-1.14.82.82,0,0,1,.84.9,1.62,1.62,0,0,1-.72,1.21l-2,1.9Zm4.4-2a2,2,0,1,0,4,0V4.69a2,2,0,1,0-4,0Zm2.9,0c0,1-.63,1.12-.92,1.12s-.92-.09-.92-1.12V4.69c0-1,.64-1.12.92-1.12s.92.09.92,1.12Zm1.66,2h3.82v-1H56.14l1.13-1a2.75,2.75,0,0,0,1.21-2.09,1.84,1.84,0,0,0-1.94-1.92,1.91,1.91,0,0,0-1.95,2.15h1.07a1,1,0,0,1,.91-1.14.83.83,0,0,1,.85.9,1.64,1.64,0,0,1-.72,1.21l-2,1.9Zm4.42,0H62.9v-1H60.56l1.13-1A2.75,2.75,0,0,0,62.9,4.48,1.84,1.84,0,0,0,61,2.56a1.91,1.91,0,0,0-2,2.15h1.07A1,1,0,0,1,61,3.57a.83.83,0,0,1,.85.9,1.64,1.64,0,0,1-.72,1.21l-2,1.9Z"/><path class="cls-1" d="M40.92,4.36a2.93,2.93,0,0,0-2.75-1.8,3.09,3.09,0,1,0,0,6.17A2.91,2.91,0,0,0,40.88,7H39.61a1.75,1.75,0,0,1-1.42.69,2,2,0,0,1-2-2,2,2,0,0,1,2-2,1.89,1.89,0,0,1,1.49.73Z"/><path class="cls-2" d="M42.71,5.64a4.65,4.65,0,0,1-9.29,0,4.65,4.65,0,0,1,9.29,0Z"/></svg>
